X:880
T:Tarbolton Lodge
R:Reel
B:The Athole Collection
M:C|
L:1/8
K:E Minor
F|Eee^d e2 BA|GBAF GEEF|Ddd^c d2 AF|GBAG FDDF|E(ee)^d efga|
Fedf eBBA|GABG FGAF|BGAF GE E||
f|gfef gebe|gebe geef|defg adfd|ABAG FDDF|G2BG F2AF|Eeef gefd|
B^cdB AGFA|BGAF GEE||

